X: 1112
T: Tam Lin
B: max new tunes
B: steve tunes
M:4/4
Q: 1/4=91
K:Eminor
V:1 
"Em"B2 eBgB eB|"Em"c2 ecgc ec|"D"d2 fdad fd|"G"gfed "Em"Beed|
"Em"B2 eBgB eB|"Em"c2 ecgc ec|"D"d2 fdad fd|"G"gfed "Em"Be e2||
"Em"eB B2 GBEB|"Em"eB B2 GBEB|"D"dA A2 FA A2|"D"dA A2 defd|
"Em"eB B2 GBEB|"Em"eB B2 GBEB|"C"c3d e3f|"G"gfed "Em"Be e2||
"Em"e^deB GEGB|"Em"e^deB GEGB|"D"dFFdFFeF|"D"fFFeFFdB|
"Em"e^deB GEGB|"Em"e^decB3B,|"Em"CB,CD EDEF|"Em"GFED "D"E3A||
% abcbook-tune_id 62b5b3cc6eb0ccc89468b474


% abcbook-boost 11
% abcbook-tablature 
% abcbook-transpose 
% abcbook-lastupdated 1663825068559
% abcbook-soundfonts 
% abcbook-repeats 3


